X: 2059
T: Sean Ryan's Reel
B: sean kenan irish music
M:4/4
L:1/8
R: Reel
Q: 1/4=105
K:D
V:1 
"D"FGAG "Bm"FDD2|"Am"CA,G,A, "G"CDEG|"D"Add2 "A"cded|"A/C#"cAGF "C"E=C3|
"D"FGAG "Bm"FDD2|"Am"CA,G,A, "G"CDEG|"D"Add2 "A"cded|1 "A/C#"(3cBA GE "D"D2D2:|2 "A/C#"(3cBA GE "D"D2 (3ABc||
|:"D"d2Ad "Bm"FdAF|"G"G3A "Am7"GFD=C|"D"A,DD2 "A"CDEG|"Bm"FGAB "A"cABc|
"D"d2dc "Bm"dAFA|"G"G3A "Am7"GFD=C|"D"A,DD2 "A"CDEG|1 "Bm"FDEC "D"D2 (3ABc:|2 "Bm"FDEC "D"D4|
% abcbook-tune_id 62badc5ab63e7be6ca986214


% abcbook-boost 0
% abcbook-tablature 
% abcbook-transpose 
% abcbook-lastupdated 1666681924753
% abcbook-soundfonts 
% abcbook-repeats 1
% Rhythm Reel
% Titles One title
% Transcriptions Only 1 transcription
% Movement Has lots of stepwise movement
% Movement Has some stepwise movement
% Mode major
% Key D
% Time_signature 4/4
% Has_accompaniment_chords No chords

